polaris-icons/icons/newicons/TextAlignmentLeftMajor.svg

<svg width="20" height="20" viewBox="0 0 20 20" fill="none" xmlns="http://www.w3.org/2000/svg">
<path fill-rule="evenodd" clip-rule="evenodd" d="M2 4.75C2 4.33579 2.33579 4 2.75 4H17.25C17.6642 4 18 4.33579 18 4.75C18 5.16421 17.6642 5.5 17.25 5.5H2.75C2.33579 5.5 2 5.16421 2 4.75Z" fill="black"/>
<path fill-rule="evenodd" clip-rule="evenodd" d="M2 8.25C2 7.83579 2.33579 7.5 2.75 7.5H10.75C11.1642 7.5 11.5 7.83579 11.5 8.25C11.5 8.66421 11.1642 9 10.75 9H2.75C2.33579 9 2 8.66421 2 8.25Z" fill="black"/>
<path fill-rule="evenodd" clip-rule="evenodd" d="M2 11.75C2 11.3358 2.33579 11 2.75 11H17.25C17.6642 11 18 11.3358 18 11.75C18 12.1642 17.6642 12.5 17.25 12.5H2.75C2.33579 12.5 2 12.1642 2 11.75Z" fill="black"/>
<path fill-rule="evenodd" clip-rule="evenodd" d="M2 15.25C2 14.8358 2.33579 14.5 2.75 14.5H10.75C11.1642 14.5 11.5 14.8358 11.5 15.25C11.5 15.6642 11.1642 16 10.75 16H2.75C2.33579 16 2 15.6642 2 15.25Z" fill="black"/>
</svg>

<svg viewBox="0 0 20 20" fill="none" xmlns="http://www.w3.org/2000/svg"><path fill-rule="evenodd" clip-rule="evenodd" d="M2 4.75a.75.75 0 0 1 .75-.75h14.5a.75.75 0 0 1 0 1.5h-14.5a.75.75 0 0 1-.75-.75Z" fill="#5C5F62"/><path fill-rule="evenodd" clip-rule="evenodd" d="M2 8.25a.75.75 0 0 1 .75-.75h8a.75.75 0 0 1 0 1.5h-8a.75.75 0 0 1-.75-.75Z" fill="#5C5F62"/><path fill-rule="evenodd" clip-rule="evenodd" d="M2 11.75a.75.75 0 0 1 .75-.75h14.5a.75.75 0 0 1 0 1.5h-14.5a.75.75 0 0 1-.75-.75Z" fill="#5C5F62"/><path fill-rule="evenodd" clip-rule="evenodd" d="M2 15.25a.75.75 0 0 1 .75-.75h8a.75.75 0 0 1 0 1.5h-8a.75.75 0 0 1-.75-.75Z" fill="#5C5F62"/></svg>
